img/s/sefcu.com.svg

<svg xmlns="http://www.w3.org/2000/svg" xmlns:xlink="http://www.w3.org/1999/xlink" width="185.45pt" height="51.16pt" viewBox="0 0 185.45 51.16" version="1.1">
<defs>
<clipPath id="clip1">
  <path d="M 157 4 L 185.449219 4 L 185.449219 37 L 157 37 Z M 157 4 "/>
</clipPath>
<clipPath id="clip2">
  <path d="M 0 0 L 52 0 L 52 51.160156 L 0 51.160156 Z M 0 0 "/>
</clipPath>
</defs>
<g id="surface1">
<path style=" stroke:none;fill-rule:nonzero;fill:rgb(66.299438%,1.998901%,19.999695%);fill-opacity:1;" d="M 55.847656 26.515625 L 56.773438 26.515625 L 56.8125 26.734375 L 56.929688 27.125 C 57.894531 32.21875 60.710938 35.089844 64.761719 35.441406 C 67.152344 35.703125 69.082031 35.003906 70.394531 33.785156 C 72.207031 32.046875 72.132813 28.738281 70.355469 27.125 C 69.621094 26.515625 68.695313 26.039063 64.144531 24.515625 C 63.605469 24.339844 63.023438 24.167969 62.484375 23.992188 C 56.929688 22.253906 54.265625 16.203125 56.734375 10.109375 C 58.046875 6.886719 61.019531 4.539063 64.875 4.191406 C 67.191406 3.972656 69.542969 4.710938 71.976563 6.582031 C 72.324219 6.84375 72.671875 7.148438 72.980469 7.453125 L 74.175781 5.191406 L 75.179688 5.191406 L 75.179688 13.808594 L 74.019531 13.808594 C 73.867188 12.109375 73.328125 10.585938 72.402344 9.28125 C 70.394531 6.496094 67.65625 5.191406 65.457031 5.453125 C 64.105469 5.625 63.140625 6.015625 62.40625 6.582031 C 60.632813 7.976563 60.554688 10.28125 62.058594 11.589844 C 62.640625 12.066406 63.257813 12.414063 63.910156 12.675781 L 67.925781 14.070313 L 68.234375 14.199219 C 72.167969 15.289063 74.058594 16.722656 75.488281 19.160156 C 77.222656 22.121094 77.492188 25.820313 76.144531 29.566406 C 74.40625 34.394531 70.550781 37.136719 64.953125 36.746094 C 62.5625 36.617188 60.324219 35.570313 58.433594 33.699219 L 56.96875 36.09375 L 55.886719 36.09375 L 55.847656 26.515625 "/>
<path style=" stroke:none;fill-rule:nonzero;fill:rgb(66.299438%,1.998901%,19.999695%);fill-opacity:1;" d="M 78.804688 36.09375 L 78.804688 34.875 L 82.125 34.875 L 82.125 5.972656 L 78.804688 5.972656 L 78.804688 4.753906 L 102.921875 4.753906 L 103.34375 13.328125 L 102.382813 13.328125 C 102.34375 13.113281 102.304688 12.894531 102.226563 12.675781 C 100.914063 7.628906 98.714844 5.972656 94.894531 5.972656 L 91.035156 5.972656 L 91.035156 19.597656 L 91.5 19.597656 C 94.855469 19.554688 96.285156 18.117188 96.746094 14.375 C 96.785156 14.027344 96.785156 13.675781 96.785156 13.328125 L 97.828125 13.328125 L 97.828125 27.167969 L 96.746094 27.167969 C 96.746094 26.824219 96.707031 26.472656 96.667969 26.125 C 96.167969 22.339844 94.511719 20.640625 91.578125 20.730469 C 91.382813 20.730469 91.230469 20.730469 91.035156 20.773438 L 91.035156 34.875 L 95.242188 34.875 C 96.363281 34.875 97.867188 34.351563 99.371094 33.265625 C 101.070313 32 102.457031 29.957031 103.269531 27.214844 C 103.382813 26.824219 103.5 26.429688 103.578125 26.039063 L 104.425781 26.039063 L 104.039063 36.09375 L 78.804688 36.09375 "/>
<path style=" stroke:none;fill-rule:nonzero;fill:rgb(66.299438%,1.998901%,19.999695%);fill-opacity:1;" d="M 105.929688 36.09375 L 105.929688 34.875 L 109.246094 34.875 L 109.246094 5.972656 L 105.929688 5.972656 L 105.929688 4.753906 L 130.046875 4.753906 L 130.46875 13.199219 L 129.503906 13.199219 C 129.582031 11.109375 128.65625 8.890625 126.574219 7.234375 C 125.453125 6.320313 124.296875 5.972656 122.25 5.972656 L 118.160156 5.972656 L 118.160156 19.554688 C 118.316406 19.554688 118.507813 19.597656 118.664063 19.597656 C 122.25 19.597656 123.5625 18.292969 123.871094 14.417969 C 123.910156 14.070313 123.910156 13.675781 123.910156 13.328125 L 124.953125 13.328125 L 124.953125 27.082031 L 123.871094 27.082031 L 123.871094 26.082031 C 123.601563 22.339844 122.058594 20.859375 118.699219 20.816406 C 118.507813 20.773438 118.316406 20.816406 118.160156 20.816406 L 118.160156 34.875 L 121.480469 34.875 L 121.480469 36.09375 L 105.929688 36.09375 "/>
<path style=" stroke:none;fill-rule:nonzero;fill:rgb(66.299438%,1.998901%,19.999695%);fill-opacity:1;" d="M 152.765625 6.976563 L 154.15625 5.015625 L 155.121094 5.015625 L 155.160156 13.808594 L 154.347656 13.808594 C 154.078125 12.851563 153.730469 11.894531 153.308594 11.023438 C 151.839844 8.148438 150.183594 6.582031 148.328125 5.929688 C 141.5 3.535156 139.570313 7.628906 140.34375 27.519531 C 140.496094 31.433594 141.230469 33.222656 142.851563 34.484375 C 145.628906 36.660156 150.449219 35.351563 153.382813 29.824219 C 154 28.695313 154.425781 27.476563 154.695313 26.167969 L 155.621094 26.167969 L 155.195313 36.09375 L 154.195313 36.09375 L 153.113281 33.4375 C 150.683594 35.960938 147.25 37.136719 142.851563 36.527344 C 136.367188 35.570313 131.390625 29.957031 130.542969 22.773438 C 129.539063 14.113281 134.128906 6.714844 141.5 4.800781 C 145.707031 3.667969 149.71875 4.535156 152.765625 6.976563 "/>
<g clip-path="url(#clip1)" clip-rule="nonzero">
<path style=" stroke:none;fill-rule:nonzero;fill:rgb(66.299438%,1.998901%,19.999695%);fill-opacity:1;" d="M 157.085938 5.972656 L 157.085938 4.753906 L 172.636719 4.753906 L 172.636719 5.972656 L 169.320313 5.972656 L 169.320313 25.34375 C 169.320313 25.863281 169.320313 26.386719 169.355469 26.910156 C 169.589844 33.828125 172.136719 36.265625 177.035156 34.785156 C 179.8125 33.960938 181.164063 31.523438 181.164063 25.996094 L 181.164063 5.972656 L 177.808594 5.972656 L 177.808594 4.753906 L 185.445313 4.753906 L 185.445313 5.972656 L 182.203125 5.972656 L 182.203125 27.867188 L 182.167969 28.738281 C 181.859375 34.351563 178.191406 37.484375 169.972656 36.746094 C 163.644531 36.179688 161.253906 34.003906 160.519531 28.695313 C 160.445313 28.214844 160.40625 27.78125 160.40625 27.300781 L 160.40625 5.972656 L 157.085938 5.972656 "/>
</g>
<path style=" stroke:none;fill-rule:nonzero;fill:rgb(66.299438%,1.998901%,19.999695%);fill-opacity:1;" d="M 32.144531 9.332031 C 30.316406 7.664063 28.042969 6.746094 25.738281 6.746094 C 23.402344 6.746094 21.046875 7.671875 19.28125 9.28125 L 19.203125 9.355469 L 25.738281 15.886719 L 32.226563 9.40625 L 32.144531 9.332031 "/>
<path style=" stroke:none;fill-rule:nonzero;fill:rgb(13.699341%,12.199402%,12.5%);fill-opacity:1;" d="M 38.191406 12.4375 C 37.292969 11.53125 35.828125 11.527344 34.925781 12.425781 L 23.726563 23.554688 C 23.726563 23.554688 23.722656 23.558594 23.722656 23.558594 L 21.710938 25.570313 L 24.976563 28.835938 L 26.980469 26.832031 C 26.980469 26.832031 26.980469 26.832031 26.984375 26.832031 L 38.179688 15.703125 C 39.085938 14.804688 39.089844 13.339844 38.191406 12.4375 "/>
<path style=" stroke:none;fill-rule:nonzero;fill:rgb(13.699341%,12.199402%,12.5%);fill-opacity:1;" d="M 10.96875 36.351563 L 14.234375 39.617188 L 20.253906 33.601563 L 16.992188 30.335938 L 10.96875 36.351563 "/>
<path style=" stroke:none;fill-rule:nonzero;fill:rgb(13.699341%,12.199402%,12.5%);fill-opacity:1;" d="M 42.171875 17.996094 C 41.273438 17.09375 39.808594 17.09375 38.90625 17.996094 L 33.132813 23.769531 C 33.117188 23.785156 33.105469 23.800781 33.089844 23.820313 L 31.253906 25.65625 L 34.519531 28.921875 L 36.734375 26.707031 L 36.730469 26.703125 L 42.171875 21.261719 C 43.078125 20.359375 43.078125 18.898438 42.171875 17.996094 "/>
<path style=" stroke:none;fill-rule:nonzero;fill:rgb(13.699341%,12.199402%,12.5%);fill-opacity:1;" d="M 21.796875 35.035156 L 25.0625 38.300781 L 29.75 33.613281 L 26.484375 30.347656 L 21.796875 35.035156 "/>
<path style=" stroke:none;fill-rule:nonzero;fill:rgb(13.699341%,12.199402%,12.5%);fill-opacity:1;" d="M 15.738281 41.105469 L 19.015625 44.359375 L 20.398438 42.96875 L 17.121094 39.714844 L 15.738281 41.105469 "/>
<path style=" stroke:none;fill-rule:nonzero;fill:rgb(13.699341%,12.199402%,12.5%);fill-opacity:1;" d="M 43.234375 26.285156 C 42.328125 25.382813 40.867188 25.382813 39.96875 26.285156 L 33.703125 32.550781 L 33.695313 32.542969 L 31.175781 35.070313 L 34.445313 38.332031 L 36.222656 36.546875 C 36.261719 36.515625 36.296875 36.484375 36.332031 36.449219 L 43.234375 29.550781 C 44.132813 28.648438 44.132813 27.1875 43.234375 26.285156 "/>
<path style=" stroke:none;fill-rule:nonzero;fill:rgb(13.699341%,12.199402%,12.5%);fill-opacity:1;" d="M 25.066406 20.863281 L 22.195313 17.992188 L 22.195313 17.996094 L 16.28125 12.082031 C 15.378906 11.179688 13.917969 11.179688 13.015625 12.082031 C 12.113281 12.984375 12.113281 14.445313 13.015625 15.347656 L 19.734375 22.066406 C 19.746094 22.082031 19.765625 22.09375 19.78125 22.109375 L 21.800781 24.128906 L 25.066406 20.863281 "/>
<path style=" stroke:none;fill-rule:nonzero;fill:rgb(13.699341%,12.199402%,12.5%);fill-opacity:1;" d="M 26.484375 28.816406 L 31.246094 33.578125 L 34.511719 30.3125 L 29.75 25.550781 L 26.484375 28.816406 "/>
<path style=" stroke:none;fill-rule:nonzero;fill:rgb(13.699341%,12.199402%,12.5%);fill-opacity:1;" d="M 35.867188 38.195313 L 37.265625 39.59375 L 40.53125 36.328125 L 39.132813 34.929688 L 35.867188 38.195313 "/>
<path style=" stroke:none;fill-rule:nonzero;fill:rgb(13.699341%,12.199402%,12.5%);fill-opacity:1;" d="M 21.722656 26.972656 L 12.398438 17.644531 C 11.496094 16.742188 10.03125 16.742188 9.132813 17.644531 C 8.230469 18.546875 8.230469 20.007813 9.132813 20.914063 L 21.75 33.53125 L 25.015625 30.261719 L 21.722656 26.972656 "/>
<path style=" stroke:none;fill-rule:nonzero;fill:rgb(13.699341%,12.199402%,12.5%);fill-opacity:1;" d="M 26.558594 38.308594 L 32.53125 44.320313 L 35.808594 41.0625 L 29.835938 35.054688 L 26.558594 38.308594 "/>
<path style=" stroke:none;fill-rule:nonzero;fill:rgb(13.699341%,12.199402%,12.5%);fill-opacity:1;" d="M 13.722656 28.347656 L 13.71875 28.34375 L 11.429688 26.046875 C 10.527344 25.140625 9.066406 25.140625 8.164063 26.039063 C 7.257813 26.941406 7.257813 28.402344 8.15625 29.304688 L 10.09375 31.25 L 12.386719 33.542969 L 15.652344 30.277344 L 13.722656 28.347656 "/>
<path style=" stroke:none;fill-rule:nonzero;fill:rgb(13.699341%,12.199402%,12.5%);fill-opacity:1;" d="M 17.082031 38.246094 L 21.832031 42.992188 L 25.097656 39.722656 L 20.347656 34.976563 L 17.082031 38.246094 "/>
<g clip-path="url(#clip2)" clip-rule="nonzero">
<path style=" stroke:none;fill-rule:nonzero;fill:rgb(13.699341%,12.199402%,12.5%);fill-opacity:1;" d="M 25.738281 0 C 11.546875 0 0 11.546875 0 25.738281 C 0 31.855469 2.21875 37.796875 6.242188 42.457031 C 10.199219 47.046875 15.644531 50.117188 21.574219 51.117188 L 21.597656 51.144531 L 29.738281 43.007813 L 26.472656 39.738281 L 20.144531 46.066406 C 16.136719 44.9375 12.496094 42.636719 9.738281 39.441406 C 6.4375 35.617188 4.621094 30.75 4.621094 25.738281 C 4.621094 14.09375 14.09375 4.617188 25.738281 4.617188 C 37.386719 4.617188 46.859375 14.09375 46.859375 25.738281 C 46.859375 30.808594 45.0625 35.703125 41.792969 39.523438 C 39.066406 42.710938 35.460938 44.988281 31.46875 46.09375 L 29.710938 44.335938 L 26.445313 47.601563 L 29.875 51.035156 L 29.894531 51.160156 C 35.878906 50.214844 41.351563 47.148438 45.300781 42.527344 C 49.285156 37.871094 51.480469 31.910156 51.480469 25.738281 C 51.480469 11.546875 39.933594 0 25.738281 0 "/>
</g>
<path style=" stroke:none;fill-rule:nonzero;fill:rgb(13.699341%,12.199402%,12.5%);fill-opacity:1;" d="M 61.121094 47.171875 L 59.6875 49.679688 L 58.488281 49.679688 L 63.558594 41.066406 L 64.878906 41.066406 L 66.164063 49.679688 L 64.894531 49.679688 L 64.574219 47.171875 Z M 64.375 46.140625 L 63.910156 42.351563 L 63.886719 42.351563 L 61.699219 46.140625 L 64.375 46.140625 "/>
<path style=" stroke:none;fill-rule:nonzero;fill:rgb(13.699341%,12.199402%,12.5%);fill-opacity:1;" d="M 71.855469 49.679688 L 70.691406 49.679688 L 72.523438 41.066406 L 78.484375 41.066406 L 78.265625 42.097656 L 73.46875 42.097656 L 72.90625 44.738281 L 77.128906 44.738281 L 76.910156 45.769531 L 72.6875 45.769531 L 71.855469 49.679688 "/>
<path style=" stroke:none;fill-rule:nonzero;fill:rgb(13.699341%,12.199402%,12.5%);fill-opacity:1;" d="M 83.515625 47.710938 C 83.417969 48.011719 82.941406 48.898438 82.035156 49.425781 C 81.707031 49.621094 81.25 49.859375 80.242188 49.859375 C 78.476563 49.859375 77.71875 48.527344 78.101563 46.71875 C 78.515625 44.773438 79.78125 43.226563 81.855469 43.226563 C 83.664063 43.226563 84.246094 44.664063 83.777344 46.882813 L 79.195313 46.882813 C 78.917969 48.191406 79.367188 48.949219 80.578125 48.949219 C 81.574219 48.949219 82.324219 48.179688 82.460938 47.710938 Z M 82.863281 46.046875 C 83.007813 45.074219 82.792969 44.175781 81.507813 44.175781 C 80.539063 44.175781 79.578125 45.074219 79.371094 46.046875 L 82.863281 46.046875 "/>
<path style=" stroke:none;fill-rule:nonzero;fill:rgb(13.699341%,12.199402%,12.5%);fill-opacity:1;" d="M 89.652344 49.679688 L 88.65625 49.679688 L 88.839844 48.816406 L 88.816406 48.816406 C 88.175781 49.667969 87.417969 49.859375 86.804688 49.859375 C 84.671875 49.859375 84.472656 47.855469 84.789063 46.355469 C 85.164063 44.59375 86.402344 43.226563 88.070313 43.226563 C 89.210938 43.226563 89.539063 43.933594 89.714844 44.292969 L 89.757813 44.210938 L 90.425781 41.066406 L 91.480469 41.066406 Z M 87.023438 48.949219 C 87.695313 48.949219 88.832031 48.503906 89.1875 46.835938 C 89.402344 45.816406 89.585938 44.175781 88.0625 44.175781 C 86.429688 44.175781 86.019531 45.722656 85.847656 46.523438 C 85.554688 47.902344 85.871094 48.949219 87.023438 48.949219 "/>
<path style=" stroke:none;fill-rule:nonzero;fill:rgb(13.699341%,12.199402%,12.5%);fill-opacity:1;" d="M 96.859375 47.710938 C 96.761719 48.011719 96.285156 48.898438 95.378906 49.425781 C 95.050781 49.621094 94.59375 49.859375 93.585938 49.859375 C 91.824219 49.859375 91.0625 48.527344 91.445313 46.71875 C 91.859375 44.773438 93.125 43.226563 95.199219 43.226563 C 97.007813 43.226563 97.589844 44.664063 97.121094 46.882813 L 92.539063 46.882813 C 92.261719 48.191406 92.710938 48.949219 93.921875 48.949219 C 94.917969 48.949219 95.667969 48.179688 95.804688 47.710938 Z M 96.207031 46.046875 C 96.351563 45.074219 96.136719 44.175781 94.851563 44.175781 C 93.882813 44.175781 92.921875 45.074219 92.71875 46.046875 L 96.207031 46.046875 "/>
<path style=" stroke:none;fill-rule:nonzero;fill:rgb(13.699341%,12.199402%,12.5%);fill-opacity:1;" d="M 98.988281 49.679688 L 97.933594 49.679688 L 99.265625 43.40625 L 100.261719 43.40625 L 100.039063 44.449219 L 100.0625 44.449219 C 100.640625 43.71875 101.296875 43.226563 102.085938 43.226563 C 102.21875 43.226563 102.277344 43.238281 102.355469 43.261719 L 102.121094 44.355469 L 101.726563 44.355469 C 100.742188 44.355469 99.957031 45.121094 99.761719 46.03125 L 98.988281 49.679688 "/>
<path style=" stroke:none;fill-rule:nonzero;fill:rgb(13.699341%,12.199402%,12.5%);fill-opacity:1;" d="M 102.675781 45.3125 C 103.042969 43.8125 104.164063 43.226563 105.710938 43.226563 C 106.214844 43.226563 108.007813 43.371094 107.664063 44.976563 L 106.898438 48.585938 C 106.84375 48.851563 106.949219 48.960938 107.167969 48.960938 C 107.261719 48.960938 107.398438 48.9375 107.523438 48.910156 L 107.363281 49.679688 C 107.171875 49.726563 107 49.800781 106.761719 49.800781 C 105.824219 49.800781 105.78125 49.320313 105.847656 48.839844 C 105.347656 49.285156 104.589844 49.859375 103.367188 49.859375 C 102.214844 49.859375 101.554688 49.128906 101.785156 48.046875 C 101.894531 47.519531 102.3125 46.296875 104.109375 46.082031 L 105.894531 45.867188 C 106.148438 45.839844 106.472656 45.746094 106.601563 45.121094 C 106.742188 44.460938 106.339844 44.101563 105.34375 44.101563 C 104.144531 44.101563 103.820313 44.832031 103.648438 45.3125 Z M 106.289063 46.476563 C 106.09375 46.609375 105.8125 46.703125 104.46875 46.871094 C 103.9375 46.945313 103.074219 47.101563 102.90625 47.890625 C 102.761719 48.574219 103.023438 48.984375 103.816406 48.984375 C 104.800781 48.984375 105.894531 48.347656 106.070313 47.507813 L 106.289063 46.476563 "/>
<path style=" stroke:none;fill-rule:nonzero;fill:rgb(13.699341%,12.199402%,12.5%);fill-opacity:1;" d="M 109.535156 49.679688 L 108.480469 49.679688 L 110.3125 41.066406 L 111.367188 41.066406 L 109.535156 49.679688 "/>
<path style=" stroke:none;fill-rule:nonzero;fill:rgb(13.699341%,12.199402%,12.5%);fill-opacity:1;" d="M 121.914063 43.660156 C 121.910156 42.148438 120.710938 41.871094 119.882813 41.871094 C 118.320313 41.871094 116.816406 43.023438 116.335938 45.289063 C 115.90625 47.316406 116.292969 48.875 118.429688 48.875 C 119.183594 48.875 120.570313 48.515625 121.390625 46.511719 L 122.519531 46.511719 C 121.347656 49.761719 118.679688 49.90625 118.03125 49.90625 C 116.074219 49.90625 114.425781 48.636719 115.128906 45.324219 C 115.691406 42.675781 117.59375 40.839844 120.101563 40.839844 C 122.320313 40.839844 123.179688 42.21875 123.039063 43.660156 L 121.914063 43.660156 "/>
<path style=" stroke:none;fill-rule:nonzero;fill:rgb(13.699341%,12.199402%,12.5%);fill-opacity:1;" d="M 124.320313 49.679688 L 123.265625 49.679688 L 124.597656 43.40625 L 125.59375 43.40625 L 125.371094 44.449219 L 125.394531 44.449219 C 125.972656 43.71875 126.625 43.226563 127.417969 43.226563 C 127.550781 43.226563 127.605469 43.238281 127.6875 43.261719 L 127.453125 44.355469 L 127.058594 44.355469 C 126.074219 44.355469 125.289063 45.121094 125.09375 46.03125 L 124.320313 49.679688 "/>
<path style=" stroke:none;fill-rule:nonzero;fill:rgb(13.699341%,12.199402%,12.5%);fill-opacity:1;" d="M 132.859375 47.710938 C 132.761719 48.011719 132.28125 48.898438 131.378906 49.425781 C 131.050781 49.621094 130.59375 49.859375 129.585938 49.859375 C 127.820313 49.859375 127.0625 48.527344 127.445313 46.71875 C 127.859375 44.773438 129.121094 43.226563 131.199219 43.226563 C 133.007813 43.226563 133.589844 44.664063 133.117188 46.882813 L 128.539063 46.882813 C 128.261719 48.191406 128.710938 48.949219 129.921875 48.949219 C 130.917969 48.949219 131.667969 48.179688 131.804688 47.710938 Z M 132.207031 46.046875 C 132.351563 45.074219 132.136719 44.175781 130.851563 44.175781 C 129.882813 44.175781 128.921875 45.074219 128.714844 46.046875 L 132.207031 46.046875 "/>
<path style=" stroke:none;fill-rule:nonzero;fill:rgb(13.699341%,12.199402%,12.5%);fill-opacity:1;" d="M 138.992188 49.679688 L 138 49.679688 L 138.183594 48.816406 L 138.15625 48.816406 C 137.519531 49.667969 136.761719 49.859375 136.148438 49.859375 C 134.015625 49.859375 133.816406 47.855469 134.136719 46.355469 C 134.507813 44.59375 135.746094 43.226563 137.414063 43.226563 C 138.554688 43.226563 138.882813 43.933594 139.058594 44.292969 L 139.101563 44.210938 L 139.769531 41.066406 L 140.824219 41.066406 Z M 136.367188 48.949219 C 137.039063 48.949219 138.175781 48.503906 138.53125 46.835938 C 138.746094 45.816406 138.929688 44.175781 137.40625 44.175781 C 135.773438 44.175781 135.359375 45.722656 135.191406 46.523438 C 134.898438 47.902344 135.214844 48.949219 136.367188 48.949219 "/>
<path style=" stroke:none;fill-rule:nonzero;fill:rgb(13.699341%,12.199402%,12.5%);fill-opacity:1;" d="M 141.539063 49.679688 L 140.484375 49.679688 L 141.816406 43.40625 L 142.871094 43.40625 Z M 142.058594 42.265625 L 142.3125 41.066406 L 143.371094 41.066406 L 143.113281 42.265625 L 142.058594 42.265625 "/>
<path style=" stroke:none;fill-rule:nonzero;fill:rgb(13.699341%,12.199402%,12.5%);fill-opacity:1;" d="M 145.566406 44.28125 L 144.699219 48.359375 C 144.59375 48.851563 145.015625 48.851563 145.230469 48.851563 L 145.601563 48.851563 L 145.425781 49.679688 C 145.035156 49.714844 144.726563 49.761719 144.617188 49.761719 C 143.574219 49.761719 143.472656 49.175781 143.632813 48.417969 L 144.511719 44.28125 L 143.660156 44.28125 L 143.84375 43.40625 L 144.695313 43.40625 L 145.070313 41.65625 L 146.125 41.65625 L 145.753906 43.40625 L 146.757813 43.40625 L 146.574219 44.28125 L 145.566406 44.28125 "/>
<path style=" stroke:none;fill-rule:nonzero;fill:rgb(13.699341%,12.199402%,12.5%);fill-opacity:1;" d="M 158.570313 41.066406 L 157.382813 46.65625 C 157.007813 48.417969 155.589844 49.90625 153.226563 49.90625 C 150.910156 49.90625 150.230469 48.417969 150.574219 46.8125 L 151.792969 41.066406 L 152.957031 41.066406 L 151.804688 46.488281 C 151.410156 48.359375 152.4375 48.875 153.480469 48.875 C 154.550781 48.875 155.851563 48.382813 156.25 46.511719 L 157.40625 41.066406 L 158.570313 41.066406 "/>
<path style=" stroke:none;fill-rule:nonzero;fill:rgb(13.699341%,12.199402%,12.5%);fill-opacity:1;" d="M 163.570313 49.679688 L 162.515625 49.679688 L 163.335938 45.816406 C 163.566406 44.726563 163.371094 44.175781 162.339844 44.175781 C 161.742188 44.175781 160.605469 44.558594 160.242188 46.261719 L 159.515625 49.679688 L 158.460938 49.679688 L 159.792969 43.40625 L 160.789063 43.40625 L 160.601563 44.292969 L 160.625 44.292969 C 160.921875 43.957031 161.667969 43.226563 162.746094 43.226563 C 163.71875 43.226563 164.855469 43.621094 164.476563 45.410156 L 163.570313 49.679688 "/>
<path style=" stroke:none;fill-rule:nonzero;fill:rgb(13.699341%,12.199402%,12.5%);fill-opacity:1;" d="M 166.210938 49.679688 L 165.15625 49.679688 L 166.488281 43.40625 L 167.542969 43.40625 Z M 166.730469 42.265625 L 166.984375 41.066406 L 168.042969 41.066406 L 167.785156 42.265625 L 166.730469 42.265625 "/>
<path style=" stroke:none;fill-rule:nonzero;fill:rgb(13.699341%,12.199402%,12.5%);fill-opacity:1;" d="M 171.722656 43.226563 C 173.722656 43.226563 174.277344 44.917969 173.933594 46.535156 C 173.589844 48.15625 172.316406 49.847656 170.316406 49.847656 C 168.3125 49.847656 167.757813 48.15625 168.101563 46.535156 C 168.449219 44.917969 169.71875 43.226563 171.722656 43.226563 Z M 170.507813 48.9375 C 172.019531 48.9375 172.664063 47.375 172.839844 46.535156 C 173.019531 45.699219 173.039063 44.136719 171.527344 44.136719 C 170.015625 44.136719 169.375 45.699219 169.195313 46.535156 C 169.015625 47.375 168.996094 48.9375 170.507813 48.9375 "/>
<path style=" stroke:none;fill-rule:nonzero;fill:rgb(13.699341%,12.199402%,12.5%);fill-opacity:1;" d="M 179.578125 49.679688 L 178.523438 49.679688 L 179.34375 45.816406 C 179.574219 44.726563 179.378906 44.175781 178.347656 44.175781 C 177.75 44.175781 176.613281 44.558594 176.25 46.261719 L 175.523438 49.679688 L 174.46875 49.679688 L 175.800781 43.40625 L 176.796875 43.40625 L 176.609375 44.292969 L 176.632813 44.292969 C 176.929688 43.957031 177.675781 43.226563 178.753906 43.226563 C 179.726563 43.226563 180.863281 43.621094 180.484375 45.410156 L 179.578125 49.679688 "/>
</g>
</svg>

<svg xmlns="http://www.w3.org/2000/svg" viewBox="0 0 51.48 51.16"><path fill="#a80230" d="M32.14 9.33a9.54 9.54 0 0 0-6.4-2.58 9.7 9.7 0 0 0-6.46 2.53l-.08.08 6.54 6.53 6.49-6.48-.09-.08"/><path fill="#211e1e" d="M38.2 12.44a2.3 2.3 0 0 0-3.27-.01l-11.2 11.12-2.02 2.02 3.27 3.27 2-2 11.2-11.14c.9-.9.91-2.36.01-3.26M10.97 36.35l3.26 3.27 6.02-6.02L17 30.34l-6.02 6.01M42.17 18a2.3 2.3 0 0 0-3.26 0l-5.78 5.77-.04.05-1.84 1.84 3.27 3.26 2.21-2.21 5.44-5.45c.9-.9.9-2.36 0-3.26M21.8 35.04l3.26 3.26 4.69-4.69-3.27-3.26-4.68 4.69m-6.06 6.06 3.28 3.26 1.38-1.4-3.28-3.25-1.38 1.4m27.49-14.82a2.3 2.3 0 0 0-3.26 0l-6.27 6.26-2.52 2.52 3.27 3.26 1.77-1.78.11-.1 6.9-6.9c.9-.9.9-2.36 0-3.26m-18.16-5.43L22.2 18l-5.92-5.9a2.3 2.3 0 1 0-3.26 3.26l6.71 6.72.05.04 2.02 2.02 3.27-3.27m1.41 7.95 4.77 4.76 3.26-3.27-4.76-4.76-3.27 3.27m9.39 9.38 1.4 1.4 3.26-3.27-1.4-1.4-3.26 3.27M21.72 26.97l-9.32-9.33a2.3 2.3 0 1 0-3.27 3.27l12.62 12.62 3.27-3.27-3.3-3.29m4.84 11.33 5.97 6.02 3.28-3.26-5.97-6-3.28 3.25m-12.84-9.96-2.29-2.3a2.3 2.3 0 1 0-3.27 3.25l1.93 1.95 2.3 2.3 3.26-3.27-1.93-1.93m3.36 9.9 4.75 4.74 3.27-3.27-4.75-4.74-3.27 3.27"/><path fill="#211e1e" d="M25.74 0A25.77 25.77 0 0 0 0 25.74c0 6.12 2.22 12.06 6.24 16.72a26 26 0 0 0 15.33 8.66l.03.02 8.14-8.13-3.27-3.27-6.33 6.33c-4-1.13-7.64-3.43-10.4-6.63a20.99 20.99 0 0 1-5.12-13.7A21.14 21.14 0 0 1 25.74 4.62a21.14 21.14 0 0 1 5.73 41.47l-1.76-1.75-3.26 3.26 3.42 3.44.02.12a25.53 25.53 0 0 0 15.41-8.63A25.77 25.77 0 0 0 25.74 0"/></svg>
